fs/conference_room_48_regular.svg

<svg viewBox="0 0 48 48" fill="none" xmlns="http://www.w3.org/2000/svg" height="1em" width="1em">
  <path d="M22.5033 7.77637L37.0033 10.7764C37.5837 10.8965 38 11.4077 38 12.0004V36.0005C38 36.5932 37.5837 37.1044 37.0033 37.2245L22.5033 40.2245C21.7275 40.385 21 39.7926 21 39.0005V9.00045C21 8.20826 21.7275 7.61587 22.5033 7.77637ZM18 10.0004V12.5004H12.5V35.5005H18V38.0005H11.25C10.6028 38.0005 10.0705 37.5086 10.0065 36.8783L10 36.7505V11.2504C10 10.6032 10.4919 10.0709 11.1222 10.0069L11.25 10.0004H18ZM23.5 10.5355V37.4654L35.5 34.9826V13.0183L23.5 10.5355ZM26.5 22.5005C27.3284 22.5005 28 23.172 28 24.0005C28 24.8289 27.3284 25.5005 26.5 25.5005C25.6716 25.5005 25 24.8289 25 24.0005C25 23.172 25.6716 22.5005 26.5 22.5005Z" fill="#212121"/>
</svg>

<svg viewBox="0 0 48 48" fill="none" xmlns="http://www.w3.org/2000/svg" height="1em" width="1em">
  <path d="m22.503 7.776 14.5 3c.58.12.997.632.997 1.224v24a1.25 1.25 0 0 1-.997 1.224l-14.5 3A1.25 1.25 0 0 1 21 39.002V9a1.25 1.25 0 0 1 1.503-1.225ZM18 10v2.5h-5.5v23H18V38h-6.75a1.25 1.25 0 0 1-1.243-1.122L10 36.751v-25.5c0-.648.492-1.18 1.122-1.244L11.25 10H18Zm5.5.536v26.93l12-2.483V13.018l-12-2.482Zm3 11.964a1.5 1.5 0 1 1 0 3 1.5 1.5 0 0 1 0-3Z" fill="#212121"/>
</svg>
